X:1
T:Miss Bethell's Fancy
M:2/4
L:1/8
R:Country Dance
B:Thompson - Compleat Collection of 200 Favourite Country Dances, vol. 5 (London, 1788, No. 120, p. 60)
Z:AK/Fiddler's Companion
K:A
A A2c|B B2e|dBAG|AE E2|
A A2c|BB2e|dBAG|A2A2:|
|:ecea|dBdf|cAce|BG E2|
ecea |dBdf|dBAG|A2 [A,2A2]:|]

